dist/img/partners/11.svg

<svg width="164" height="36" viewBox="0 0 164 36" fill="none" xmlns="http://www.w3.org/2000/svg">
<path d="M16.4556 1.85214C15.0158 2.3493 13.9613 3.12486 12.4809 4.69589C8.10063 9.32941 4.65317 19.8294 4.30843 29.534L4.20703 32.4175L5.5049 28.8379C7.16779 24.2243 8.20202 21.7186 9.62156 18.9345C14.083 10.1646 18.5038 8.01691 22.9652 12.4913L24.2225 13.7442L25.2973 13.1874C26.9805 12.3323 28.035 12.4913 28.2581 13.6845C28.4 14.4402 27.9742 15.7726 27.2239 16.8862L26.6966 17.6618L27.7106 19.7698C29.0895 22.5936 29.7993 24.3436 31.4216 28.9374C32.9629 33.2925 33.0034 33.2726 32.6181 28.4203C31.7664 17.9203 28.3595 8.45441 23.8778 4.05952C21.6065 1.83225 18.8486 1.01691 16.4556 1.85214Z" fill="#1C386C"/>
<path d="M42.9604 5.45157C41.4598 5.61066 39.5332 6.02827 38.4584 6.44589L37.8906 6.66464V17.9004V29.1362H40.9325H43.9744V20.1874V11.2385L44.5016 11.1192C45.475 10.8805 47.8882 11.159 48.8008 11.6163C52.3294 13.3862 53.5056 17.4629 51.4371 20.6448C50.6868 21.7783 49.1658 22.8521 47.7868 23.1902L46.8134 23.4487V26.2925V29.1362H47.3813C47.6854 29.1362 48.4966 28.997 49.1455 28.8379C54.6006 27.4658 58.3726 22.7726 58.3726 17.3038C58.3726 14.0823 57.2978 11.5766 54.8237 9.13055C53.5056 7.81805 52.8769 7.36066 51.4776 6.70441C50.5245 6.26691 49.3281 5.80952 48.8211 5.69021C47.4827 5.39191 44.745 5.27259 42.9604 5.45157Z" fill="#1C386C"/>
<path d="M69.9709 5.74965C64.678 7.02237 60.8047 11.8945 60.8047 17.3036C60.8047 22.7326 64.6172 27.4854 70.0317 28.8377C71.5526 29.2156 74.3309 29.2156 75.9735 28.8377C80.5363 27.7837 84.2271 23.9258 85.0788 19.332C86.1739 13.3065 82.2397 7.34056 76.1154 5.76953C74.6756 5.41158 71.4918 5.39169 69.9709 5.74965ZM75.8924 11.8349C77.1902 12.4712 78.5287 13.9826 78.9545 15.2354C79.3804 16.4883 79.2993 18.7752 78.772 19.8093C78.2042 20.9627 77.17 22.0366 75.9938 22.6729C75.0001 23.2099 74.7162 23.2695 73.0736 23.2695C70.9443 23.2695 69.8695 22.8718 68.531 21.5593C65.3269 18.3974 66.564 13.0877 70.8834 11.5167C72.1204 11.0792 74.6756 11.2383 75.8924 11.8349Z" fill="#1C386C"/>
<path d="M144.964 5.78964C144.234 5.92885 143.26 6.20726 142.794 6.38623L141.922 6.70441V17.9203V29.1362H144.964H148.006L148.046 19.6305L148.107 10.1448L149.06 10.0851C150.317 10.0056 151.189 10.4629 151.595 11.3777C151.94 12.2328 151.818 13.1874 151.25 13.784C150.885 14.1618 150.845 14.48 150.845 16.6078C150.845 18.9743 150.845 19.0141 151.352 19.2328C151.636 19.3521 152.082 19.7896 152.325 20.1675C152.751 20.8436 152.771 21.1618 152.832 25.0198L152.913 29.1362H155.935H158.956V24.284C158.956 18.8948 158.896 18.5368 157.638 17.3237C157.253 16.926 156.624 16.4686 156.259 16.2896C155.914 16.1107 155.59 15.9317 155.549 15.9118C155.509 15.872 155.894 15.4743 156.401 15.0169C157.983 13.5851 158.328 11.497 157.334 9.28964C156.543 7.53964 154.982 6.38623 152.528 5.76976C151.047 5.39191 146.769 5.39191 144.964 5.78964Z" fill="#1C386C"/>
<path d="M88.7903 6.30668C88.7903 6.56521 88.4253 11.7754 87.9791 17.9004C87.533 24.0254 87.168 29.0567 87.168 29.0766C87.168 29.1163 88.5672 29.1362 90.2707 29.1362H93.3734L93.8601 22.3152C94.1034 18.5766 94.3873 15.1163 94.4482 14.6391L94.5699 13.7641L97.5509 19.7896L100.552 25.7953L103.574 19.8493C105.987 15.0965 106.616 14.0226 106.697 14.4203C106.758 14.6987 107.001 17.7413 107.244 21.1817C107.467 24.622 107.711 27.8237 107.772 28.2811L107.873 29.1362H110.915H113.936V28.6391C113.936 28.0425 112.578 9.09078 112.395 7.20157L112.274 5.86918H108.786H105.318L102.965 10.5823L100.613 15.3152L98.1998 10.5823L95.7866 5.86918H92.2986C88.7903 5.86918 88.7903 5.86918 88.7903 6.30668Z" fill="#1C386C"/>
<path d="M124.707 7.20157C124.484 7.95725 122.841 13.1675 121.056 18.7953L117.832 29.0368L121.077 29.0965C122.882 29.1163 124.362 29.1163 124.402 29.0965C124.423 29.0567 125.416 25.3578 126.572 20.8834C127.749 16.3891 128.762 12.8692 128.823 13.0283C128.884 13.1874 129.31 14.6788 129.736 16.3493L130.527 19.372L130 19.4317C129.493 19.4913 129.432 19.6107 128.803 22.2754C128.438 23.8067 128.154 25.1192 128.134 25.1987C128.134 25.2783 129.026 25.3777 130.121 25.3976L132.088 25.4573L132.575 27.3067L133.062 29.1362H136.367H139.673L139.49 28.5794C139.308 28.0624 132.676 6.94305 132.474 6.20725C132.372 5.90896 132.027 5.86918 128.742 5.86918H125.112L124.707 7.20157Z" fill="#1C386C"/>
<path d="M23.5953 16.5484C20.8171 18.4773 18.6472 19.591 17.6332 19.591C16.7612 19.591 15.5039 19.0143 14.4089 18.0796C13.9222 17.6819 13.4152 17.4035 13.253 17.4631C12.8068 17.6421 11.3062 19.591 10.7992 20.7046C10.13 22.0768 9.86633 23.608 10.0894 24.6023C10.3733 25.8154 10.8803 26.2131 12.3201 26.3126C13.3746 26.3921 13.7194 26.3126 14.8956 25.7756C15.6459 25.4376 16.8626 24.7415 17.5927 24.2245C19.3164 23.0114 22.4191 20.0881 23.9198 18.2387C25.1162 16.787 26.2519 15.0569 26.1099 14.9376C26.0694 14.8978 24.9337 15.6137 23.5953 16.5484Z" fill="#1C386C"/>
</svg>

<svg width="164" height="36" viewBox="0 0 164 36" fill="none" xmlns="http://www.w3.org/2000/svg"><path d="M16.456 1.852c-1.44.497-2.495 1.273-3.975 2.844C8.1 9.329 4.653 19.829 4.308 29.534l-.101 2.883 1.298-3.58c1.663-4.613 2.697-7.118 4.117-9.902 4.461-8.77 8.882-10.918 13.343-6.444l1.258 1.253 1.074-.557c1.683-.855 2.738-.696 2.961.498.142.755-.284 2.088-1.034 3.201l-.527.776 1.014 2.108c1.379 2.824 2.088 4.574 3.71 9.167 1.542 4.355 1.582 4.336 1.197-.517-.852-10.5-4.259-19.966-8.74-24.36-2.271-2.228-5.03-3.043-7.422-2.208zm26.504 3.6c-1.5.159-3.427.576-4.502.994l-.567.219v22.471h6.083V11.238l.528-.119c.973-.239 3.386.04 4.299.497 3.528 1.77 4.705 5.847 2.636 9.029-.75 1.133-2.271 2.207-3.65 2.545l-.974.259v5.687h.568c.304 0 1.116-.139 1.764-.298 5.456-1.372 9.228-6.065 9.228-11.534 0-3.222-1.075-5.727-3.55-8.173-1.317-1.313-1.946-1.77-3.345-2.427-.953-.437-2.15-.894-2.657-1.014-1.338-.298-4.076-.417-5.86-.238zm27.01.298c-5.292 1.272-9.165 6.145-9.165 11.554 0 5.429 3.812 10.181 9.227 11.534 1.52.378 4.299.378 5.942 0 4.562-1.054 8.253-4.912 9.105-9.506 1.095-6.026-2.84-11.991-8.964-13.562-1.44-.358-4.623-.378-6.144-.02zm5.922 6.085c1.298.636 2.637 2.148 3.063 3.4.425 1.253.344 3.54-.183 4.574-.568 1.154-1.602 2.228-2.778 2.864-.994.537-1.278.597-2.92.597-2.13 0-3.204-.398-4.543-1.71-3.204-3.163-1.967-8.472 2.352-10.043 1.237-.438 3.793-.279 5.01.318zm69.072-6.045c-.73.139-1.704.417-2.17.596l-.872.318v22.432h6.084l.04-9.505.061-9.486.953-.06c1.257-.08 2.129.378 2.535 1.293.345.855.223 1.81-.345 2.406-.365.378-.405.696-.405 2.824 0 2.366 0 2.406.507 2.625.284.12.73.557.973.934.426.677.446.995.507 4.853l.081 4.116h6.043v-4.852c0-5.39-.06-5.747-1.318-6.96-.385-.398-1.014-.855-1.379-1.034-.345-.18-.669-.358-.71-.378-.04-.04.345-.438.852-.895 1.582-1.432 1.927-3.52.933-5.727-.791-1.75-2.352-2.904-4.806-3.52-1.481-.378-5.759-.378-7.564.02zm-56.174.517c0 .258-.365 5.468-.81 11.593-.447 6.125-.812 11.157-.812 11.177 0 .04 1.4.06 3.103.06h3.102l.487-6.822c.243-3.738.527-7.199.588-7.676l.122-.875 2.98 6.026 3.002 6.005 3.022-5.946c2.413-4.752 3.042-5.826 3.123-5.429.061.279.304 3.321.547 6.762.223 3.44.467 6.642.528 7.1l.101.854h6.063v-.497c0-.596-1.358-19.548-1.541-21.437l-.121-1.333h-6.956l-2.353 4.713-2.352 4.733-2.413-4.733-2.413-4.713h-3.488c-3.509 0-3.509 0-3.509.438zm35.917.895c-.223.755-1.866 5.966-3.651 11.593l-3.224 10.242 3.245.06c1.805.02 3.285.02 3.325 0 .021-.04 1.014-3.74 2.17-8.214 1.177-4.494 2.19-8.014 2.251-7.855.061.16.487 1.65.913 3.321l.791 3.023-.527.06c-.507.06-.568.179-1.197 2.843-.365 1.532-.649 2.844-.669 2.924 0 .08.892.179 1.987.199l1.967.06.487 1.849.487 1.83h6.611l-.183-.558c-.182-.517-6.814-21.636-7.016-22.372-.102-.298-.447-.338-3.732-.338h-3.63l-.405 1.333z" fill="#1C386C"/><path d="M23.595 16.548c-2.778 1.93-4.948 3.043-5.962 3.043-.872 0-2.13-.577-3.224-1.511-.487-.398-.994-.676-1.156-.617-.446.18-1.947 2.128-2.454 3.242-.669 1.372-.933 2.903-.71 3.897.284 1.213.791 1.611 2.231 1.71 1.055.08 1.4 0 2.576-.536a19.553 19.553 0 002.697-1.552c1.723-1.213 4.826-4.136 6.327-5.985 1.196-1.452 2.332-3.182 2.19-3.301-.04-.04-1.176.676-2.515 1.61z" fill="#1C386C"/></svg>
